X:4
T:Peterswell Hornpipe
R:hornpipe
D:John Williams - Steam
Z:Jeff Welty, 2002
M:C|
K:D
Q:350
(3gfe|:dAFA DAFA |dAFA D2df|e2ce aece|fece A2(3ABc|
dAFA DAFA |dAFA D2df|e2ce aece|BABc d2(3ABc:|
dafd cgec |dafd A2(3zz=c|Bg (3gfg Af (3fef|afec dB (3ABc|
dafd cgec |dafd A2 (3Bcd|e2ce Aece|BABc d2(3ABc:|
</abc>
